X:1
T:Title
%%score { ( 1 4 ) | ( 2 3 ) }
L:1/8
Q:1/4=92
M:4/4
K:Eb
V:1 treble nm="Grand Piano"
V:4 treble 
V:2 bass 
V:3 bass 
V:1
 [G,B,G]2 [G,=B,F]2 [G,CE]2 .[A,DG]2 | [CE]2 [=B,D]2 E4 | B2 A2 G2 [CEG]2 | D4- [B,D=G]4 | %4
w: George~Mursell~Garrett * * *||||
 [B,DG]2 [A,DF]2 [G,E]2 .[CFB]2 | [B,EG]2 F2 B4 | E2 G2 [EB]2 [E_d]2 | c4 B4 | %8
w: ||||
 G2 G2 [CEG]2 [EGc]2 | B2 A2 G4 | G2 G2 G2 [Ge]2 | d2 c2 =B4 | c2 E2 E2 F2 | G8 | %14
w: ||||||
 [B,DB]2 [B,DF]2 [B,EB]2 [B,FA]2 | G2 c2 B4 | [=Ec]2 [EG]2 [Fc]2 [GB]2 | z4 B4 | %18
w: ||||
 e2 E2 E2 [=B,DF]2 |[M:8/4] [B,EG]8 z8 |[M:4/4] [A,CE]4 [G,B,E]4 |] %21
w: |||
V:2
 E,2 D,2 C,2 z F | [G,,G,]2 [G,,G,]2 [C,G,C]4 | [D,F,B,]2 [D,F,B,]2 [E,G,B,]2 C,2 | D,4 G,,4 | %4
 B,,2 B,,2 C,2 z A | B,,2 [A,B,D]2 [G,B,E]4 | [G,B,]2 [E,B,E]2 [B,,G,]2 [G,,B,]2 | %7
 [A,,A,]4 [E,G,]4 | [E,B,E]2 [G,=B,D]2 C,2 C,2 | [F,DF]2 [F,CF]2 [G,=B,D]4 | %10
 [G,=B,D]2 [F,B,D]2 [E,C]2 [E,C]2 | [A,=B,F]2 [A,CF]2 [G,DG]4 | [CEG]2 C2[K:bass] [B,D]2 [A,CE]2 | %13
 [CE]4 =B,4 | B,,2 B,,2 C,2 D,2 | [E,B,E]2 [E,A,E]2 [E,G,E]4 | [C,G,]2 [C,C]2 [D,C]2 [=E,C]2 | %17
 [F,CF]2 [F,=A,E]2 [B,D]4 | [G,B,E]2 [G,B,_D]2 [A,C]2 A,,2 |[M:8/4] E,8 z8 |[M:4/4] A,,4 E,4 |] %21
V:3
 z4 z2 F,,2 | x8 | x8 | x8 | z4 z2 A,,2 | x8 | x8 | x8 | x8 | x8 | x8 | x8 | x4[K:bass] x4 | G,8 | %14
 x8 | x8 | x8 | x8 | x8 |[M:8/4] x16 |[M:4/4] x8 |] %21
V:4
 x8 | x8 | x8 | [=A,_G]4 z4 | x8 | x8 | x8 | E8 | x8 | x8 | x8 | x8 | x8 | z4 D4 | x8 | x8 | x8 | %17
 =A2 c2 z2 A,2 | x8 |[M:8/4] x16 |[M:4/4] x8 |] %21

